X:1
T:Title
%%score ( 1 2 ) { 3 | 4 }
L:1/8
Q:1/4=105
M:9/8
K:D
V:1 treble nm="Grand Piano, Soprano"
V:2 treble 
V:3 bass nm="Choir Pad, Wilt Thou Blameless Be?"
V:4 bass 
V:1
 [DF][DF][DF] [=Fc]3 [FB]3 | [FB]2 F [FA]6 | [GA][GA][GA] [CE]3 [CF]3 | [CA]2 [CG] F3- [EF]3 | %4
w: By~Keith~L.~Brooks * * * *||||
 [Dd][Fd][Fd] [Fc]3 F3 | [FB]2 [EB] A3- [DA]3 | [CA][CA][CA] [DA]3 [DA]3 | [DB]2 [DA] [CA]3 [Gc]3 | %8
w: ||||
 z3 [Fd]3 [DF]3 | [Fc][FB]F [FA]6 | [EG]3 [DF]3 [DF]3 | [DB][CE][CF] [B,D]3 [A,D]3- | [A,D]6 z3 |] %13
w: |||||
V:2
 x9 | x9 | x9 | z3 D3 z3 | x9 | z3 F3 z3 | x9 | x9 | x9 | x9 | x9 | x9 | x9 |] %13
V:3
 A,A,A, ^G,3 G,3 | A,2 A, A,3 B,3 | CCC G,3 A,3 | E,2 A, A,3 ^A,3 | B,B,[K:treble]D C3 C3 | %5
 B,2 C D3[K:bass] A,3 | A,E,E, =F,3 F,3 | F,2 F, G,3 G,3 | z3 A,3 A,3 | EDB, =C6 | B,3 A,3 A,3 | %11
 F,G,A, G,3 F,3- | F,6 z3 |] %13
V:4
 D,D,D, D,3 D,3 | D,2 D, D,6 | E,E,E, A,,3 z3 | A,,2 A,, D,3 C,3 | B,,B,,B, A,3 A,3 | %5
 G,2 G, A,3 F,3 | A,,A,,A,, A,,3 A,,3 | A,,2 A,, A,,3 z3 | z3 D,3 D,3 | D,D,D, ^D,6 | %10
 E,3 A,,3 A,,3 | A,,A,,A,, D,3 D,3- | D,6 z3 |] %13

